X:183
T: ES WOLLTE EIN MAEDCHEN IN DER FRUH AUFSTEHN
N: E0096D
O: Europa, Mitteleuropa, Deutschland, Odenwald; Bergstrasse
R: erzaehlendes Volks - Lied, Sage, Liebe, Leid, Tod
M: 3/4
L: 1/8
K: F
C2 | F2A2G2 | F2F2
cd | c3BA2 | G4z2 |
c2c2c2 | A3Bc2 |
dcB2BA | G3AB2 |
cBA2G2 | F4z2 |
c2c2c2 | A3Bc2 |
dcB2BA | G3AB2 |
cBA2G2 | F4

@@@ Tune index: 3833
